X: 22855
T: Lark In The Morning, The
R: jig
M: 6/8
K: Cmajor
|:G3 GEG|A3 AcA|G3 GEG|efd ecA|
G3 GEG|A3 AGA|cde ged|ecA AGA:|
|:cde g3|age ged|cde ged|ecA AGA|
cde g3|age g2e|f3 e3|dcA AGA:|
|:c2e ede|ede ede|c2e ede|dcA AGA|
c2e ede|ede cde|f3 e3|dcA AGA:|
|:Gcc ecc|dcc ecA|Gcc ecc|dcA AGA|
Gcc ecc|dcA cde|f3 e3|dcA AcA:|

